build/system/ReportSolid.svg

<svg xmlns="http://www.w3.org/2000/svg" fill="none" viewBox="0 0 24 24" focusable="false"><path d="M0 0H24V24H0z"/><path fill="#74767B" fill-rule="evenodd" d="M13.296 3.09264C12.5854 2.99015 12 3.58205 12 4.30002L12 10.7C12 11.418 12.582 12 13.3 12L19.7 12C20.418 12 21.0099 11.4146 20.9074 10.704C20.3401 6.77071 17.2293 3.65989 13.296 3.09264Z"/><path fill="#74767B" d="M10.7 4.5399C10.7 3.74785 9.99238 3.13389 9.23846 3.37668C5.61888 4.54235 3 7.93788 3 11.9451C3 16.9156 7.02944 20.9451 12 20.9451C15.9844 20.9451 19.3641 18.3559 20.5483 14.7683C20.7976 14.0131 20.1829 13.3 19.3877 13.3L12 13.3C11.282 13.3 10.7 12.718 10.7 12L10.7 4.5399Z"/><path fill="#74767B" d="M10.7 4.5399C10.7 3.74785 9.99238 3.13389 9.23846 3.37668C5.61888 4.54235 3 7.93788 3 11.9451C3 16.9156 7.02944 20.9451 12 20.9451C15.9844 20.9451 19.3641 18.3559 20.5483 14.7683C20.7976 14.0131 20.1829 13.3 19.3877 13.3L12 13.3C11.282 13.3 10.7 12.718 10.7 12L10.7 4.5399Z"/></svg>

<svg xmlns="http://www.w3.org/2000/svg" fill="none" viewBox="0 0 24 24" focusable="false"><g fill="#74767B"><path fill-rule="evenodd" d="M13.29 3.09c-.71-.1-1.29.49-1.29 1.21v6.4c0 .71.58 1.3 1.29 1.3h6.41c.71 0 1.3-.59 1.2-1.3a8.995 8.995 0 0 0-7.61-7.61"/><path d="M10.7 4.53c0-.79-.71-1.4-1.47-1.16A9 9 0 0 0 3 11.94c0 4.97 4.02 9 9 9 3.98 0 7.36-2.59 8.54-6.18.25-.75-.36-1.46-1.16-1.46H12c-.72 0-1.3-.59-1.3-1.3z"/></g></svg>
